!!!OTL: AUS DEM HIMMEL DROBEN FAELLT EIN GOLDNER SCHNEE
!!!ARE: Europa, Mitteleuropa, Deutschland, Hochwald, Hellertshausen
!!!SCT: B0488
!!!YEM: Copyright 1995, estate of Helmut Schaffrath.
**kern
*ICvox
*Ivox
*M2/4
*k[f#c#]
*D:
=1
{8d
8e
8f#
8d
=2
4b
4b}
=3
{8a
8f#
8g
8f#
=4
4e
4r}
=5
{8a
8a
8cc#
8cc#
=6
4g
4r}
=7
{8.g
16g
8b
8b
=8
4a
4r}
=9
{8a
8f#
8dd
8dd
=10
4.a
8a}
=11
{8f#
8f#
8e
8d
=12
4b
4r}
=13
{8.ee
16dd
8cc#
8b
=14
8a
8a
8g
8c#
=15
4d
4r}
=16
{8d
8e
8f#
8d
=17
2b}
=18
{8a
8f#
8g
8f#
=19
2e
=20
8r}
{8a
8a
8a
=21
2ee}
=22
{8g
8g
8f#
8g
=23
4a
4r
=24
8r}
{8a
8f#
8dd
=25
8f#
8f#
8e
8d
=26
2b
=27
8r}
{8ee
8dd
8b
=28
4a
8a
8a
=29
4g
4c#
=30
2d}
==
!!!AGN: Liebes - Lied, Leid, Klage
!!!ONB: ESAC (Essen Associative Code) Database: BOEHME
!!!AMT: simple duple
!!!AIN: vox
!!!EED: Helmut Schaffrath
!!!EEV: 1.0
*-
